X:272
T:All Depends On Our Possessing
%%stretchlast false
M:4/4
L:1/4
K:F clef=C1
"^I"[FAcf] [FAcf] "^V¹"[EGcc'] "^I"[FAcc'] | "^IV¹"[DFfb] "^V¹"[EGcc'] "^I"[FAca] [FAcf] | [Fcfa] [Fcfa] "^V"[Cceg] "^iii7"[A,ceg] | "^vi"[DAdf] "^ii¹"[B,Gdg] "^V"[CGce] [CEc] | "^ii"[Gdg] [DGdg] "^I"[FAcf] "^V"[CGce] | "^vi¹"[FAd] [FAd] "^V¹"[EGc]2 | "^V"[Cceg] [Cceg] "^V¹"[EGcc'] "^vi¹"[FAda] | "^ii"[Gdb] "^V¹"[EGcc'] "^I"[FAca] [FAcf] | [Fcfa] [Fcfa] "^V¹"[Ecg] [Eceg] | "^vi"[DAdf] "^ii¹"[B,Gdg] "^V"[CGce] [CEc] | "^I¹"[Acf] [Acf] "^IV¹"[Ddfb] "^I"[Fcfa] | [Ccfg] "^V"[Cceg] "^I"[FAcf]2 |]
